icons/desktop/12/svg/audio-smaller-12.svg

<svg width="12" height="12" viewBox="0 0 12 12" fill="none" xmlns="http://www.w3.org/2000/svg">
<path d="M7.74512 1.71289C7.81703 1.7129 7.84732 1.72583 7.94727 1.75781C9.72015 2.35987 11 4.02308 11 6C11 7.9769 9.72016 9.64016 7.94727 10.2422C7.87331 10.2672 7.81806 10.2871 7.74512 10.2871C7.47215 10.2871 7.25006 10.0649 7.25 9.79199C7.25 9.51901 7.3699 9.38062 7.63086 9.30762C9.00683 8.83663 9.99995 7.53395 10 6C10 4.45611 8.94433 3.27668 7.60547 2.68164C7.46949 2.62165 7.25006 2.48093 7.25 2.20801C7.25 1.93501 7.47212 1.71289 7.74512 1.71289Z" fill="black"/>
<path d="M4.05957 2.34863C4.59759 1.43268 6 1.81497 6 2.87695V9.12207C5.99988 10.1829 4.59762 10.5652 4.05957 9.64941L3.01074 7.8623C2.9338 7.86432 2.84145 7.87402 2.76953 7.87402C2.47682 7.87401 2.20207 7.85895 1.94629 7.83398C1.40929 7.78098 1 7.33394 1 6.79395V5.20312C1 4.67712 1.39204 4.22097 1.91504 4.16797C2.22983 4.13599 2.51666 4.12501 2.76953 4.125C2.85546 4.125 2.92589 4.13566 3.00879 4.13867L4.05957 2.34863Z" fill="black"/>
<path d="M7.4668 3.74902C8.3198 4.14502 8.91699 4.997 8.91699 6L8.91797 5.99902C8.91791 7.00396 8.31983 7.85697 7.46387 8.25195C7.44698 8.25889 7.42127 8.26553 7.40137 8.26562C7.31848 8.26562 7.25115 8.19906 7.25098 8.11621V3.88379C7.25103 3.80083 7.3184 3.73438 7.40137 3.73438C7.42227 3.73447 7.44891 3.74208 7.4668 3.74902Z" fill="black"/>
</svg>

<!-- This Source Code Form is subject to the terms of the Mozilla Public
   - License, v. 2.0. If a copy of the MPL was not distributed with this
   - file, You can obtain one at http://mozilla.org/MPL/2.0/. -->
<svg xmlns="http://www.w3.org/2000/svg" width="12" height="12" fill="context-fill" fill-opacity="context-fill-opacity" viewBox="0 0 12 12">
    <path d="M7.745 1.713c.072 0 .102.013.202.045A4.48 4.48 0 0 1 11 6c0 1.977-1.28 3.64-3.053 4.242-.074.025-.129.045-.202.045a.496.496 0 0 1-.495-.495c0-.273.12-.411.38-.484A3.5 3.5 0 0 0 10 6c0-1.544-1.056-2.723-2.395-3.318-.136-.06-.355-.201-.355-.474s.222-.495.495-.495M4.06 2.349C4.598 1.433 6 1.815 6 2.877v6.245c0 1.06-1.402 1.443-1.94.527L3.01 7.862c-.076.002-.169.012-.24.012a9 9 0 0 1-.824-.04A1.045 1.045 0 0 1 1 6.794v-1.59c0-.527.392-.983.915-1.036.315-.032.602-.043.855-.043.085 0 .156.01.239.014z" />
    <path d="M7.467 3.749A2.48 2.48 0 0 1 8.917 6l.001-.001a2.48 2.48 0 0 1-1.454 2.253.15.15 0 0 1-.213-.136V3.884a.15.15 0 0 1 .216-.135" />
</svg>
